X: 12021
T: Erddigain Hun Gwenllian
R: polka
M: 2/4
K: Dminor
F|[A3c3][Bd]|(cB) (AG)|F>F fc|cA BG|
F>F fc|cA Bd|c<A G>F|F3:|
|:(3c/d/e/|f2f2|e2e2|d>f ed|(^ c3c)|
de fe|de f2|(F>G) AG|(FE) DC|
c2 cd|ed ef|eg gc|(=B>c) dB|
c>=B cd|(e>f) ed|c2 =B2|[E4||

